picto/toilets-framed.svg

<svg class="color-immutable" width="30" height="30" viewBox="0 0 30 30" fill="none" xmlns="http://www.w3.org/2000/svg"><path d="M29.9999 0H0V29.9999H29.9999V0Z" fill="#2D327D"/><path d="M25.4999 2.99999C26.3249 2.99999 26.9999 3.67499 26.9999 4.49999V25.4999C26.9999 26.3249 26.3249 26.9999 25.4999 26.9999H4.49999C3.67499 26.9999 2.99999 26.3249 2.99999 25.4999V4.49999C2.99999 3.67499 3.67499 2.99999 4.49999 2.99999H25.4999ZM25.4999 2.62499H4.49999C3.46612 2.62499 2.62499 3.46612 2.62499 4.49999V25.4999C2.62499 26.5338 3.46612 27.3749 4.49999 27.3749H25.4999C26.5338 27.3749 27.3749 26.5338 27.3749 25.4999V4.49999C27.3749 3.46612 26.5338 2.62499 25.4999 2.62499Z" fill="white"/><path d="M16.2238 15.7549L13.9905 24H12.1858L10.759 18.1122L9.37724 24H7.55002L5.35058 15.7549H7.16092L8.48624 21.8118L9.93562 15.7549H11.6388L13.0882 21.7667L14.4304 15.7549H16.2238Z" fill="white"/><path d="M24.2207 20.8192C24.1605 21.6727 23.8748 22.4021 23.3635 23.0074C22.6942 23.8008 21.7467 24.1974 20.5211 24.1974C19.2164 24.1974 18.2013 23.7368 17.4758 22.8156C16.8555 22.0299 16.5453 21.0486 16.5453 19.8717C16.5453 18.6386 16.9137 17.6103 17.6506 16.7868C18.3875 15.9672 19.3669 15.5574 20.5889 15.5574C21.728 15.5574 22.6454 15.9334 23.341 16.6853C23.8373 17.2154 24.1117 17.8264 24.1644 18.5181H22.3879C22.2901 18.0519 22.0814 17.6919 21.7619 17.4381C21.4422 17.1844 21.0381 17.0575 20.5493 17.0575C19.7672 17.0575 19.1826 17.3865 18.7954 18.0444C18.5059 18.5445 18.3612 19.1574 18.3612 19.883C18.3612 20.6274 18.5134 21.2478 18.818 21.744C19.2052 22.3795 19.7786 22.6971 20.5381 22.6971C21.0795 22.6971 21.5109 22.5374 21.8324 22.2177C22.1538 21.8982 22.3522 21.432 22.4274 20.8191H24.2207V20.8192Z" fill="white"/></svg>

<svg class="color-immutable" width="30" height="30" viewBox="0 0 30 30" fill="none" xmlns="http://www.w3.org/2000/svg"><path d="M30 0H0v30h30V0Z" fill="#2D327D"/><path d="M25.5 3c.825 0 1.5.675 1.5 1.5v21c0 .825-.675 1.5-1.5 1.5h-21c-.825 0-1.5-.675-1.5-1.5v-21C3 3.675 3.675 3 4.5 3h21Zm0-.375h-21A1.877 1.877 0 0 0 2.625 4.5v21c0 1.034.841 1.875 1.875 1.875h21a1.877 1.877 0 0 0 1.875-1.875v-21A1.877 1.877 0 0 0 25.5 2.625Z" fill="#fff"/><path d="M16.224 15.755 13.99 24h-1.805l-1.427-5.888L9.377 24H7.55l-2.2-8.245h1.81l1.326 6.057 1.45-6.057h1.703l1.45 6.012 1.341-6.012h1.794ZM24.22 20.82c-.06.853-.345 1.582-.857 2.187-.669.794-1.616 1.19-2.842 1.19-1.305 0-2.32-.46-3.045-1.381-.62-.786-.93-1.767-.93-2.944 0-1.233.368-2.262 1.105-3.085.736-.82 1.716-1.23 2.938-1.23 1.139 0 2.056.376 2.752 1.128.496.53.77 1.141.823 1.833h-1.776c-.098-.466-.307-.826-.626-1.08-.32-.254-.724-.38-1.213-.38-.782 0-1.366.329-1.754.986-.29.5-.434 1.113-.434 1.839 0 .744.152 1.365.457 1.861.387.636.96.953 1.72.953.541 0 .973-.16 1.294-.48.322-.319.52-.785.595-1.398h1.794Z" fill="#fff"/></svg>
